X: 66
T: No_164.krn
N: Derived from No_164.krn
%%abc-version 2.0
%%abcx-abcm2ps-target-version 5.9.1 (29 Sep 2008)
%%abc-creator hum2abc beta
%%abcx-conversion-date 2019/03/15 08:29:13
%%humdrum-veritas 3224843435
%%humdrum-veritas-data 4274216716
%%linebreak <none>
%%barnumbers 0
L: 1/8
M: 3/4
K: Gb clef=bass
[K:clef=bass][M:3/4]D2D3/D/ A,3/A,/ | 
E2FE DA,/A,/ ||  
[M:2/4]G,2A,G, | 
E,/D,3/- D,3/D,/ | 
A,2D3/A,/ | 
G,3A, | 
G,3A,/G,/ | 
E,/D,3/- D,3/D,/ ||  
[M:3/4]D2D3/C/ A,3/A,/ | 
D2(3EDC A,G,/E,/ | 
G,2D3/A,/ G,3/G,/ | 
E,/D,3/-D,2z D, ||  
[M:2/4]C/B,3/- B,3/B,/ | 
B,/A,3/ A,3/G,/ ||  
[M:3/4]B,2D3/B,/ A,3/A,/ ||  
[M:2/4]G,3/E,/ G,3/E,/ | 
D,3D, | 
B,2D3/B,/ | 
A,3A, | 
G,2A,G, | 
E,/D,3/- D,3/D,/ ||  
[M:3/4]A,2D3/B,/ A,3/A,/ ||  
[M:2/4]G,3/E,/ G,3/E,/ | 
D,7/D,/ ||  
[M:3/4]A,2B,3/B,/ A,3/A,/ | 
D2D3/B,/ A,3/A,/ ||  
[M:2/4]G,3/E,/ G,3/E,/ | 
D,4 |]  



